www/assets/icons/miscellaneous_services.svg

<svg width="24" height="24" viewBox="0 0 24 24" xmlns="http://www.w3.org/2000/svg" fill='currentColor'><path d="M14.1684 13.73L15.5684 11.31C15.6584 11.16 15.6184 10.97 15.4884 10.86L14.0084 9.70002C14.0384 9.48002 14.0584 9.25002 14.0584 9.02002C14.0584 8.79002 14.0384 8.56002 14.0084 8.33002L15.4884 7.17002C15.6184 7.06002 15.6584 6.87002 15.5684 6.72002L14.1684 4.30002C14.0784 4.15002 13.8984 4.09002 13.7384 4.15002L11.9984 4.85002C11.6384 4.57002 11.2484 4.34002 10.8184 4.16002L10.5584 2.31002C10.5284 2.15002 10.3784 2.02002 10.2084 2.02002H7.40842C7.23842 2.02002 7.08842 2.15002 7.05842 2.32002L6.79842 4.17002C6.37842 4.35002 5.97842 4.58002 5.61842 4.86002L3.87842 4.16002C3.71842 4.10002 3.53842 4.16002 3.44842 4.31002L2.04842 6.73002C1.95842 6.88002 1.99842 7.07002 2.12842 7.18002L3.60842 8.34002C3.57842 8.56002 3.55842 8.79002 3.55842 9.02002C3.55842 9.25002 3.57842 9.48002 3.60842 9.71002L2.12842 10.87C1.99842 10.98 1.95842 11.17 2.04842 11.32L3.44842 13.74C3.53842 13.89 3.71842 13.95 3.87842 13.89L5.61842 13.19C5.97842 13.47 6.36842 13.7 6.79842 13.88L7.05842 15.73C7.08842 15.89 7.23842 16.02 7.40842 16.02H10.2084C10.3784 16.02 10.5284 15.89 10.5584 15.72L10.8184 13.87C11.2384 13.69 11.6384 13.46 11.9984 13.18L13.7384 13.88C13.8984 13.94 14.0784 13.88 14.1684 13.73ZM8.80842 11.02C7.70842 11.02 6.80842 10.12 6.80842 9.02002C6.80842 7.92002 7.70842 7.02002 8.80842 7.02002C9.90842 7.02002 10.8084 7.92002 10.8084 9.02002C10.8084 10.12 9.90842 11.02 8.80842 11.02Z"/><path d="M21.9184 18.69L20.9584 17.95C20.9784 17.81 20.9984 17.66 20.9984 17.51C20.9984 17.36 20.9884 17.21 20.9584 17.07L21.9084 16.33C21.9884 16.26 22.0184 16.14 21.9584 16.04L21.0584 14.49C21.0084 14.39 20.8884 14.36 20.7784 14.39L19.6684 14.84C19.4384 14.66 19.1884 14.51 18.9084 14.4L18.7384 13.22C18.7284 13.1 18.6284 13.02 18.5284 13.02H16.7384C16.6284 13.02 16.5284 13.1 16.5184 13.21L16.3484 14.39C16.0784 14.51 15.8184 14.65 15.5884 14.83L14.4784 14.38C14.3784 14.34 14.2584 14.38 14.1984 14.48L13.2984 16.03C13.2484 16.13 13.2584 16.25 13.3484 16.32L14.2984 17.06C14.2784 17.2 14.2684 17.35 14.2684 17.5C14.2684 17.65 14.2784 17.8 14.2984 17.94L13.3484 18.68C13.2684 18.75 13.2384 18.87 13.2984 18.97L14.1984 20.52C14.2484 20.62 14.3684 20.65 14.4784 20.62L15.5884 20.17C15.8184 20.35 16.0684 20.5 16.3484 20.61L16.5184 21.79C16.5384 21.9 16.6284 21.98 16.7384 21.98H18.5284C18.6384 21.98 18.7384 21.9 18.7484 21.79L18.9184 20.61C19.1884 20.49 19.4484 20.35 19.6684 20.17L20.7884 20.62C20.8884 20.66 21.0084 20.62 21.0684 20.52L21.9684 18.97C22.0284 18.88 21.9984 18.76 21.9184 18.69ZM17.6284 18.85C16.8884 18.85 16.2784 18.25 16.2784 17.5C16.2784 16.75 16.8784 16.15 17.6284 16.15C18.3784 16.15 18.9784 16.75 18.9784 17.5C18.9784 18.25 18.3684 18.85 17.6284 18.85Z"/></svg>

<svg xmlns="http://www.w3.org/2000/svg" width="24" height="24" viewBox="0 0 24 24" fill='currentColor'><path d="m14.168 13.73 1.4-2.42c.09-.15.05-.34-.08-.45l-1.48-1.16c.03-.22.05-.45.05-.68s-.02-.46-.05-.69l1.48-1.16c.13-.11.17-.3.08-.45l-1.4-2.42a.354.354 0 0 0-.43-.15l-1.74.7c-.36-.28-.75-.51-1.18-.69l-.26-1.85a.364.364 0 0 0-.35-.29h-2.8c-.17 0-.32.13-.35.3l-.26 1.85c-.42.18-.82.41-1.18.69l-1.74-.7c-.16-.06-.34 0-.43.15l-1.4 2.42c-.09.15-.05.34.08.45l1.48 1.16c-.03.22-.05.45-.05.68s.02.46.05.69l-1.48 1.16c-.13.11-.17.3-.08.45l1.4 2.42c.09.15.27.21.43.15l1.74-.7c.36.28.75.51 1.18.69l.26 1.85c.03.16.18.29.35.29h2.8c.17 0 .32-.13.35-.3l.26-1.85c.42-.18.82-.41 1.18-.69l1.74.7c.16.06.34 0 .43-.15m-5.36-2.71c-1.1 0-2-.9-2-2s.9-2 2-2 2 .9 2 2-.9 2-2 2m13.11 7.67-.96-.74c.02-.14.04-.29.04-.44s-.01-.3-.04-.44l.95-.74c.08-.07.11-.19.05-.29l-.9-1.55c-.05-.1-.17-.13-.28-.1l-1.11.45c-.23-.18-.48-.33-.76-.44l-.17-1.18a.216.216 0 0 0-.21-.2h-1.79c-.11 0-.21.08-.22.19l-.17 1.18c-.27.12-.53.26-.76.44l-1.11-.45a.23.23 0 0 0-.28.1l-.9 1.55c-.05.1-.04.22.05.29l.95.74a3.2 3.2 0 0 0 0 .88l-.95.74c-.08.07-.11.19-.05.29l.9 1.55c.05.1.17.13.28.1l1.11-.45c.23.18.48.33.76.44l.17 1.18c.02.11.11.19.22.19h1.79c.11 0 .21-.08.22-.19l.17-1.18c.27-.12.53-.26.75-.44l1.12.45c.1.04.22 0 .28-.1l.9-1.55c.06-.09.03-.21-.05-.28m-4.29.16a1.35 1.35 0 1 1 .002-2.701 1.35 1.35 0 0 1-.002 2.701"/></svg>
